dist/flags/m/512.svg

<svg width="20" height="15" viewBox="0 0 20 15" fill="none" xmlns="http://www.w3.org/2000/svg">
<mask id="mask0" mask-type="alpha" maskUnits="userSpaceOnUse" x="0" y="0" width="20" height="15">
<rect width="20" height="15" fill="white"/>
</mask>
<g mask="url(#mask0)">
<path fill-rule="evenodd" clip-rule="evenodd" d="M0 0V15H20V0H0Z" fill="#F50101"/>
<mask id="mask1" mask-type="alpha" maskUnits="userSpaceOnUse" x="0" y="0" width="20" height="15">
<path fill-rule="evenodd" clip-rule="evenodd" d="M0 0V15H20V0H0Z" fill="white"/>
</mask>
<g mask="url(#mask1)">
<path fill-rule="evenodd" clip-rule="evenodd" d="M0 0V5H20V0H0Z" fill="#F7FCFF"/>
<path fill-rule="evenodd" clip-rule="evenodd" d="M0 10V15H20V10H0Z" fill="#5EAA22"/>
<rect width="7.5" height="15" fill="#F50101"/>
<path fill-rule="evenodd" clip-rule="evenodd" d="M6.73148 1.27058C6.7374 1.21356 6.66447 1.19163 6.63539 1.24102C6.40859 1.6263 5.84011 2.54283 4.90432 3.74138V3.16783C4.81506 3.07082 4.53049 2.80983 4.53049 2.80983V2.23713L5.04529 1.77126L4.33825 1.25004L3.59303 1.77126L4.15631 2.23713V2.80983C4.15631 3.08446 3.81482 3.16783 3.81482 3.16783L3.75229 3.67301C2.8817 2.54251 2.33892 1.66105 2.10907 1.26707C2.0794 1.21623 2.00479 1.24018 2.01355 1.29839C2.08293 1.75911 2.29043 2.78137 2.86361 3.87282H2.70988V3.8525C2.70988 3.82248 2.68555 3.79815 2.65553 3.79815H1.3376C1.30758 3.79815 1.28325 3.82248 1.28325 3.8525V4.6813C1.28325 4.71132 1.30758 4.73565 1.3376 4.73565H2.65553C2.68555 4.73565 2.70988 4.71132 2.70988 4.6813V4.24618H2.87586C2.93216 4.37599 3.06144 4.46748 3.21263 4.47014C3.31825 4.63309 3.43279 4.7956 3.557 4.95608C3.27128 4.92782 1.38293 4.76705 1.38293 5.45404C1.38293 5.86411 1.84223 6.08116 2.41826 6.19335C1.83826 6.71857 1.29081 7.21274 1.03894 7.43999C0.998068 7.47686 1.03001 7.54073 1.08344 7.52749C1.53324 7.41602 2.71227 7.0721 3.83467 6.3064L3.86963 6.30644C4.18573 6.30644 4.40558 6.16932 4.55839 5.98371C5.69997 6.91553 6.99147 7.34589 7.55209 7.50009C7.61026 7.51609 7.64171 7.4408 7.59215 7.4064C7.13679 7.09033 6.10998 6.32965 5.06005 5.22477L5.0876 5.19252C5.30181 4.93973 5.48846 4.67971 5.65109 4.41899C5.71914 4.3792 5.77333 4.31866 5.80477 4.24618H5.97075V4.6813C5.97075 4.71132 5.99508 4.73565 6.0251 4.73565H7.34303C7.37305 4.73565 7.39738 4.71132 7.39738 4.6813V3.8525C7.39738 3.82248 7.37305 3.79815 7.34303 3.79815H6.0251C6.01118 3.79815 5.99849 3.80338 5.98887 3.81199C6.52782 2.72105 6.68605 1.70879 6.73148 1.27058ZM5.97075 3.87282V3.8525L5.97093 3.84805L5.95846 3.87282H5.97075ZM3.5251 4.10057C3.5251 4.26759 3.38823 4.40299 3.21939 4.40299C3.05055 4.40299 2.91368 4.26759 2.91368 4.10057C2.91368 3.93355 3.05055 3.79815 3.21939 3.79815C3.38823 3.79815 3.5251 3.93355 3.5251 4.10057ZM5.15553 4.10057C5.15553 4.26759 5.2924 4.40299 5.46124 4.40299C5.63008 4.40299 5.76695 4.26759 5.76695 4.10057C5.76695 3.93355 5.63008 3.79815 5.46124 3.79815C5.2924 3.79815 5.15553 3.93355 5.15553 4.10057Z" fill="#F7FCFF"/>
</g>
</g>
</svg>

<svg width="20" height="15" fill="none" xmlns="http://www.w3.org/2000/svg">
  <mask id="a" maskUnits="userSpaceOnUse" x="0" y="0" width="20" height="15">
    <path fill="#fff" d="M0 0h20v15H0z"/>
  </mask>
  <g mask="url(#a)">
    <path fill-rule="evenodd" clip-rule="evenodd" d="M0 0v15h20V0H0z" fill="#F50101"/>
    <mask id="b" maskUnits="userSpaceOnUse" x="0" y="0" width="20" height="15">
      <path fill-rule="evenodd" clip-rule="evenodd" d="M0 0v15h20V0H0z" fill="#fff"/>
    </mask>
    <g mask="url(#b)">
      <path fill-rule="evenodd" clip-rule="evenodd" d="M0 0v5h20V0H0z" fill="#F7FCFF"/>
      <path fill-rule="evenodd" clip-rule="evenodd" d="M0 10v5h20v-5H0z" fill="#5EAA22"/>
      <path fill="#F50101" d="M0 0h7.5v15H0z"/>
      <path fill-rule="evenodd" clip-rule="evenodd" d="M6.731 1.27c.006-.056-.067-.078-.096-.029a23.922 23.922 0 01-1.73 2.5v-.573c-.09-.097-.375-.358-.375-.358v-.573l.515-.466-.707-.521-.745.521.563.466v.573c0 .274-.341.358-.341.358l-.063.505A23.357 23.357 0 012.11 1.267c-.03-.05-.104-.027-.095.031.069.461.276 1.483.85 2.575H2.71v-.02a.054.054 0 00-.054-.055H1.338a.054.054 0 00-.055.054v.83c0 .03.025.054.055.054h1.318c.03 0 .054-.025.054-.055v-.435h.166c.056.13.185.221.337.224.105.163.22.326.344.486-.286-.028-2.174-.189-2.174.498 0 .41.46.627 1.035.74-.58.525-1.127 1.019-1.38 1.246-.04.037-.008.1.045.087.45-.111 1.63-.455 2.752-1.22h.035a.854.854 0 00.688-.323C5.7 6.915 6.991 7.346 7.552 7.5c.058.016.09-.06.04-.094A16.983 16.983 0 015.06 5.225l.028-.033c.214-.252.4-.512.563-.773.068-.04.122-.1.154-.173h.166v.435c0 .03.024.055.054.055h1.318c.03 0 .054-.025.054-.055v-.829a.054.054 0 00-.054-.054H6.025a.054.054 0 00-.036.014 7.722 7.722 0 00.742-2.541zm-.76 2.603v-.025l-.013.025h.013zM3.525 4.1a.304.304 0 01-.306.302.304.304 0 01-.305-.302c0-.167.137-.303.305-.303.17 0 .306.136.306.303zm1.63 0c0 .167.137.302.306.302a.304.304 0 00.306-.302.304.304 0 00-.306-.303.304.304 0 00-.305.303z" fill="#F7FCFF"/>
    </g>
  </g>
</svg>
